img/icon-phone-white.svg

<svg width="24" height="24" viewBox="0 0 24 24" fill="none" xmlns="http://www.w3.org/2000/svg">
<path fill-rule="evenodd" clip-rule="evenodd" d="M12.1467 3.61031C12.0938 3.58977 12.0373 3.58053 11.981 3.58304C11.9247 3.58556 11.8697 3.59976 11.8195 3.62463C11.7709 3.64867 11.7278 3.68221 11.6926 3.72323C10.4228 5.29794 9.54162 7.15006 9.1203 9.13013L9.11847 9.13872C8.71427 10.9597 8.71606 12.8484 9.12396 14.6706L9.12598 14.6796C9.54847 16.6523 10.4267 18.4997 11.6905 20.0738C11.7264 20.1154 11.7702 20.1493 11.8193 20.1737C11.8704 20.199 11.926 20.2133 11.9826 20.2158C12.0392 20.2183 12.0954 20.2089 12.1478 20.1884C12.2002 20.1679 12.2477 20.1368 12.2872 20.0969L12.2901 20.0941L13.7804 18.6038C13.7862 18.5979 13.7922 18.5921 13.7982 18.5864C13.8697 18.5183 13.9139 18.4261 13.922 18.3269C13.93 18.2287 13.9021 18.1303 13.8428 18.0504C13.3836 17.4512 12.9933 16.8023 12.6794 16.1158L12.6784 16.1136C12.646 16.0424 12.5939 15.9818 12.5282 15.9392C12.463 15.8969 12.3875 15.8741 12.3104 15.8733L11.051 15.872C10.6016 15.8716 10.2076 15.5713 10.0881 15.138C9.50127 13.0114 9.49897 10.7667 10.0817 8.64066C10.2009 8.20585 10.5963 7.90456 11.0471 7.905L12.3065 7.90625C12.3835 7.90553 12.4584 7.88295 12.5225 7.84139C12.5872 7.79948 12.6385 7.7399 12.6703 7.66959L12.6713 7.66739C12.984 6.98132 13.3731 6.33284 13.8314 5.73428C13.8888 5.65657 13.9167 5.56037 13.9093 5.46299C13.9018 5.36447 13.8586 5.27157 13.7876 5.20188L13.7805 5.195L12.288 3.7024C12.2879 3.70234 12.2881 3.70246 12.288 3.7024C12.2478 3.66228 12.1995 3.63081 12.1467 3.61031ZM11.8919 1.58503C12.2257 1.57015 12.5589 1.62494 12.8703 1.74579C13.1816 1.86664 13.4645 2.05091 13.7009 2.28686L15.1918 3.77772C15.6062 4.18597 15.8592 4.73056 15.9035 5.31092C15.9479 5.89318 15.7791 6.47183 15.428 6.93874L15.4224 6.94617C15.0545 7.42614 14.7421 7.94629 14.4912 8.49677L13.5813 8.08208L14.4922 8.49457C14.3024 8.9138 13.9962 9.26967 13.61 9.51991C13.2237 9.77015 12.7738 9.90413 12.3137 9.90624L12.3081 9.90627L11.8377 9.90579C11.581 11.2151 11.5825 12.5628 11.8424 13.8728L12.3216 13.8733C12.7817 13.8763 13.2312 14.0112 13.617 14.2615C14.0024 14.5117 14.3083 14.8668 14.4987 15.285C14.7507 15.8359 15.0642 16.3568 15.4331 16.8376L15.4386 16.8447C15.7936 17.316 15.9634 17.9014 15.9154 18.4897C15.8677 19.0734 15.6088 19.6195 15.187 20.0256L13.7072 21.5054C13.7066 21.5059 13.7061 21.5065 13.7055 21.5071C13.4698 21.7442 13.1872 21.9296 12.8757 22.0513C12.5635 22.1733 12.2293 22.2286 11.8946 22.2138C11.5598 22.1991 11.2318 22.1146 10.9316 21.9659C10.6314 21.8172 10.3655 21.6075 10.1508 21.3503L10.1394 21.3363C8.67697 19.5182 7.66038 17.3833 7.17125 15.1029C6.70059 12.9973 6.69841 10.8147 7.16501 8.70959C7.65283 6.4203 8.67299 4.27889 10.1431 2.45873L10.153 2.44659C10.3671 2.18994 10.6323 1.98079 10.9317 1.83246C11.2311 1.68413 11.5582 1.59991 11.8919 1.58503Z" fill="white"/>
</svg>

<svg width="24" height="24" fill="none" xmlns="http://www.w3.org/2000/svg"><path fill-rule="evenodd" clip-rule="evenodd" d="M12.147 3.61a.408.408 0 0 0-.454.113A12.885 12.885 0 0 0 9.12 9.13l-.002.009a12.713 12.713 0 0 0 .006 5.532l.002.009c.422 1.972 1.3 3.82 2.565 5.394a.413.413 0 0 0 .457.114c.052-.02.1-.051.14-.091l.002-.003 1.49-1.49a.403.403 0 0 0 .062-.553c-.458-.6-.849-1.249-1.163-1.935v-.002a.41.41 0 0 0-.369-.24l-1.259-.002a1 1 0 0 1-.963-.734 12.251 12.251 0 0 1-.006-6.497 1 1 0 0 1 .965-.736l1.26.001a.404.404 0 0 0 .363-.236l.001-.003c.313-.686.702-1.334 1.16-1.933a.405.405 0 0 0-.043-.532l-.008-.007-1.492-1.493a.411.411 0 0 0-.141-.092Zm-.255-2.025a2.408 2.408 0 0 1 1.809.702l1.49 1.49a2.41 2.41 0 0 1 .237 3.162l-.006.007c-.367.48-.68 1-.93 1.55l-.91-.414.91.413a2.402 2.402 0 0 1-2.178 1.411h-.476a10.251 10.251 0 0 0 .004 3.967h.48a2.41 2.41 0 0 1 2.177 1.412c.252.55.565 1.072.934 1.553l.006.007a2.409 2.409 0 0 1-.252 3.18l-1.48 1.48s0 .002-.002.002a2.403 2.403 0 0 1-3.554-.157l-.012-.014a14.947 14.947 0 0 1-2.968-6.233 14.713 14.713 0 0 1-.006-6.393 14.885 14.885 0 0 1 2.978-6.251l.01-.012a2.404 2.404 0 0 1 1.739-.862Z" fill="#fff"/></svg>
